flags/no.svg

<svg xmlns="http://www.w3.org/2000/svg" width="512" height="512" fill="none"><path fill="var(--flag-palette-bright-red, #d80027)" d="M0 0h512v512H0z"/><path fill="var(--flag-palette-white, #eeeeee)" d="M512 320V192H224V0H96v192H0v128h96v192h128V320z"/><path fill="var(--flag-palette-blue, #0052b4)" d="M512 288v-64H192V0h-64v224H0v64h128v224h64V288z"/></svg>

<svg width="512" height="512" viewBox="0 0 512 512" fill="none" xmlns="http://www.w3.org/2000/svg">
<rect width="512" height="512" fill="var(--flag-palette-bright-red, #d80027)"/>
<path d="M512 320V192H224V0H96V192H0V320H96V512H224V320H512Z" fill="var(--flag-palette-white, #eeeeee)"/>
<path d="M512 288V224H192V0H128V224H0V288H128V512H192V288H512Z" fill="var(--flag-palette-blue, #0052b4)"/>
</svg>
